Newaita-dark/apps/48/system-search.svg

<svg height="48" viewBox="0 0 48 48" width="48" xmlns="http://www.w3.org/2000/svg" xmlns:xlink="http://www.w3.org/1999/xlink"><linearGradient id="a" gradientUnits="userSpaceOnUse" x1="17.8610877883" x2="17.8610877883" y1="7.32100441914" y2="32.12807341917"><stop offset="0" stop-color="#9fa8da" stop-opacity=".392157"/><stop offset="1" stop-color="#0277bd" stop-opacity=".392157"/></linearGradient><linearGradient id="b"><stop offset="0" stop-opacity=".313726"/><stop offset=".222222" stop-opacity=".27451"/><stop offset="1" stop-opacity="0"/></linearGradient><radialGradient id="c" cx="450.908936" cy="189.579361" gradientTransform="matrix(.00000026 -.117199 -.210958 -.00000015 77.699832 95.392998)" gradientUnits="userSpaceOnUse" r="21.166656" xlink:href="#b"/><radialGradient id="d" cx="450.908936" cy="189.579361" gradientTransform="matrix(-.00000026 .117199 .210958 .00000015 -1.790236 -11.29122)" gradientUnits="userSpaceOnUse" r="21.166656" xlink:href="#b"/><radialGradient id="e" cx="450.908936" cy="189.579361" gradientTransform="matrix(-.00000026 -.117199 .210958 -.00000015 -1.790236 95.392998)" gradientUnits="userSpaceOnUse" r="21.166656" xlink:href="#b"/><radialGradient id="f" cx="450.908936" cy="189.579361" gradientTransform="matrix(.00000026 .117199 -.210958 .00000015 77.699829 -11.29122)" gradientUnits="userSpaceOnUse" r="21.166656" xlink:href="#b"/><linearGradient id="g" gradientTransform="matrix(.0200401 0 0 .093759 26.88441 20.158179)" gradientUnits="userSpaceOnUse" x1="255.323059" x2="255.323044" y1="233.5" y2="254.666656"><stop offset="0" stop-opacity=".27451"/><stop offset="1" stop-opacity="0"/></linearGradient><linearGradient id="h" gradientTransform="matrix(.0662976 -.0662976 .0607728 .0607728 5.965013 44.79566)" gradientUnits="userSpaceOnUse" x1="192.736588" x2="477.111359" y1="165.093643" y2="-145.133408"><stop offset="0" stop-color="#424242"/><stop offset="1" stop-color="#616161"/></linearGradient><linearGradient id="i" gradientTransform="matrix(.0662976 -.0662976 .0662976 .0662976 5.727147 44.233183)" gradientUnits="userSpaceOnUse" x1="257.64035" x2="354.926453" y1="224.72374" y2="127.43763"><stop offset="0" stop-color="#8d6e63"/><stop offset="1" stop-color="#a1887f"/></linearGradient><path d="m19.847656 5.476562c7.671875 0 13.890625 6.21875 13.890625 13.890626 0 7.671874-6.21875 13.894531-13.890625 13.894531s-13.894531-6.222657-13.894531-13.894531c0-7.671876 6.222656-13.890626 13.894531-13.890626zm0 0" fill="url(#a)"/><path d="m38.203125 42.050781h3.96875v-1.984375h-3.96875zm0 0" fill="url(#c)"/><path d="m37.707031 42.050781h-3.96875v1.984375h3.96875zm0 0" fill="url(#d)"/><path d="m37.707031 42.050781h-3.96875v-1.984375h3.96875zm0 0" fill="url(#e)"/><path d="m38.203125 42.050781h3.96875v1.984375h-3.96875zm0 0" fill="url(#f)"/><path d="m37.707031 42.050781h.496094v1.984375h-.496094zm0 0" fill="url(#g)"/><path d="m19.84375 4.34375c-8.242188 0-14.882812 6.640625-14.882812 14.882812 0 8.246094 6.640624 14.886719 14.882812 14.886719 3.449219 0 6.617188-1.160156 9.132812-3.113281l2.054688 2.050781 2.804688-2.804687-2.074219-2.078125c1.867187-2.484375 2.96875-5.578125 2.96875-8.941407 0-8.242187-6.640625-14.882812-14.886719-14.882812zm.015625 2.976562c6.601563 0 11.917969 5.3125 11.917969 11.90625 0 6.597657-5.316406 11.910157-11.917969 11.910157-6.605469 0-11.921875-5.3125-11.921875-11.910157 0-6.59375 5.316406-11.90625 11.921875-11.90625zm0 0" fill="url(#h)"/><path d="m31.03125 33.050781 2.804688-2.804687c.777343-.777344 2.03125-.777344 2.808593 0l5.613281 5.613281c.773438.773437.773438 2.03125 0 2.804687l-2.808593 2.808594c-.773438.773438-2.03125.773438-2.804688 0l-5.613281-5.613281c-.777344-.777344-.777344-2.035156 0-2.808594zm0 0" fill="url(#i)"/><path d="m19.84375 4.34375c-8.242188 0-14.882812 6.640625-14.882812 14.882812 0 .085938 0 .167969.003906.25.128906-8.128906 6.71875-14.636718 14.878906-14.636718 8.164062 0 14.753906 6.507812 14.882812 14.636718.003907-.082031.003907-.164062.003907-.25 0-8.242187-6.640625-14.882812-14.886719-14.882812zm-11.902344 15.132812c-.003906.082032-.003906.164063-.003906.246094 0 6.597656 5.316406 11.910156 11.921875 11.910156 6.601563 0 11.917969-5.3125 11.917969-11.910156 0-.082031 0-.164062 0-.246094-.132813 6.480469-5.398438 11.660157-11.917969 11.660157-6.523437 0-11.785156-5.179688-11.917969-11.660157zm24.03125 8.902344c-.070312.097656-.140625.191406-.210937.285156l1.828125 1.828126.246094-.246094zm0 0" fill="#fff" fill-opacity=".392157"/><path d="m19.859375 6.960938c-6.605469 0-11.921875 5.3125-11.921875 11.910156 0 .058594 0 .117187.003906.179687.09375-6.515625 5.375-11.730469 11.917969-11.730469s11.824219 5.214844 11.917969 11.730469c0-.0625 0-.121093 0-.179687 0-6.597656-5.316406-11.910156-11.917969-11.910156zm14.871094 12.085937c-.039063 3.292969-1.136719 6.320313-2.96875 8.761719l.152343.152344c1.773438-2.449219 2.816407-5.464844 2.816407-8.734376 0-.058593 0-.117187 0-.179687zm-29.769531.003906v.175781c0 8.246094 6.640624 14.886719 14.882812 14.886719 3.449219 0 6.617188-1.160156 9.132812-3.113281l2.054688 2.050781 2.804688-2.804687-.179688-.179688-2.625 2.625-2.054688-2.050781c-2.515624 1.953125-5.683593 3.113281-9.132812 3.113281-8.183594 0-14.785156-6.542968-14.882812-14.703125zm0 0" fill-opacity=".235294"/><path d="m19.84375 4.203125c-8.320312 0-15.023438 6.703125-15.023438 15.023437 0 8.324219 6.703126 15.027344 15.023438 15.027344 3.4375 0 6.59375-1.144531 9.117188-3.070312l1.875 1.871094c.03125-.035157.0625-.070313.09375-.101563l.101562-.101563-1.953125-1.953124c-.050781-.050782-.128906-.054688-.1875-.011719-2.492187 1.933593-5.628906 3.085937-9.046875 3.085937-8.167969 0-14.742188-6.574218-14.742188-14.746094 0-8.167968 6.574219-14.742187 14.742188-14.742187 8.171875 0 14.746094 6.574219 14.746094 14.742187 0 3.332032-1.09375 6.394532-2.941406 8.859376-.039063.054687-.035157.132812.015624.183593l1.972657 1.976563.101562-.101563c.03125-.03125.066407-.066406.101563-.09375l-1.894532-1.898437c1.835938-2.492188 2.925782-5.578125 2.925782-8.925782 0-8.320312-6.703125-15.023437-15.027344-15.023437zm.015625 2.976563c-6.679687 0-12.0625 5.375-12.0625 12.046874 0 6.675782 5.382813 12.050782 12.0625 12.050782s12.058594-5.375 12.058594-12.050782c0-6.671874-5.378907-12.046874-12.058594-12.046874zm0 .28125c6.527344 0 11.777344 5.246093 11.777344 11.765624 0 6.523438-5.25 11.769532-11.777344 11.769532s-11.78125-5.246094-11.78125-11.769532c0-6.519531 5.253906-11.765624 11.78125-11.765624zm0 0" fill="#212121"/><path d="m35.242188 29.660156c-.507813 0-1.015626.195313-1.40625.585938l-2.804688 2.804687c-.445312.445313-.632812 1.042969-.570312 1.621094.046874-.433594.238281-.855469.570312-1.1875l2.804688-2.804687c.777343-.777344 2.03125-.777344 2.808593 0l5.613281 5.613281c.332032.332031.523438.753906.570313 1.183593.0625-.574218-.125-1.175781-.570313-1.617187l-5.613281-5.613281c-.390625-.390625-.898437-.585938-1.402343-.585938zm0 0" fill="#fff" fill-opacity=".392157"/><path d="m38.046875 42.097656c.507813 0 1.015625-.191406 1.402344-.582031l2.808593-2.804687c.445313-.445313.632813-1.042969.570313-1.621094-.046875.433594-.238281.851562-.570313 1.1875l-2.808593 2.804687c-.777344.777344-2.027344.777344-2.804688 0l-5.613281-5.613281c-.332031-.332031-.523438-.753906-.570312-1.1875-.0625.578125.125 1.179688.570312 1.621094l5.613281 5.613281c.386719.390625.894531.582031 1.402344.582031zm0 0" fill-opacity=".235294"/><path d="m30.929688 32.953125c-.828126.828125-.828126 2.171875 0 3.003906l5.613281 5.613281c.832031.832032 2.175781.832032 3.007812 0l2.804688-2.808593c.832031-.828125.832031-2.171875 0-3.003907l-5.613281-5.613281c-.828126-.832031-2.171876-.832031-3.003907 0zm.199218.199219 2.808594-2.808594c.722656-.722656 1.882812-.722656 2.605469 0l5.613281 5.613281c.726562.722657.726562 1.882813 0 2.609375l-2.804688 2.804688c-.726562.722656-1.882812.722656-2.609374 0l-5.613282-5.613282c-.722656-.722656-.722656-1.882812 0-2.605468zm0 0" fill="#212121"/></svg>

<?xml version="1.0" encoding="UTF-8"?>
<svg xmlns="http://www.w3.org/2000/svg" xmlns:xlink="http://www.w3.org/1999/xlink" width="48px" height="48px" viewBox="0 0 48 48" version="1.1">
<defs>
<linearGradient id="linear0" gradientUnits="userSpaceOnUse" x1="169.3237" y1="-148.991623" x2="169.3237" y2="115.591713" gradientTransform="matrix(0.093759,0,0,0.093759,1.985467,21.29031)">
<stop offset="0" style="stop-color:rgb(62.352943%,65.882355%,85.490197%);stop-opacity:0.392157;"/>
<stop offset="1" style="stop-color:rgb(0.784314%,46.666667%,74.117649%);stop-opacity:0.392157;"/>
</linearGradient>
<radialGradient id="radial0" gradientUnits="userSpaceOnUse" cx="450.908936" cy="189.579361" fx="450.908936" fy="189.579361" r="21.166656" gradientTransform="matrix(0.000000261256,-0.117199,-0.210958,-0.000000152308,77.699832,95.392998)">
<stop offset="0" style="stop-color:rgb(0%,0%,0%);stop-opacity:0.313726;"/>
<stop offset="0.222222" style="stop-color:rgb(0%,0%,0%);stop-opacity:0.27451;"/>
<stop offset="1" style="stop-color:rgb(0%,0%,0%);stop-opacity:0;"/>
</radialGradient>
<radialGradient id="radial1" gradientUnits="userSpaceOnUse" cx="450.908936" cy="189.579361" fx="450.908936" fy="189.579361" r="21.166656" gradientTransform="matrix(-0.000000261256,0.117199,0.210958,0.000000152308,-1.790236,-11.29122)">
<stop offset="0" style="stop-color:rgb(0%,0%,0%);stop-opacity:0.313726;"/>
<stop offset="0.222222" style="stop-color:rgb(0%,0%,0%);stop-opacity:0.27451;"/>
<stop offset="1" style="stop-color:rgb(0%,0%,0%);stop-opacity:0;"/>
</radialGradient>
<radialGradient id="radial2" gradientUnits="userSpaceOnUse" cx="450.908936" cy="189.579361" fx="450.908936" fy="189.579361" r="21.166656" gradientTransform="matrix(-0.000000261256,-0.117199,0.210958,-0.000000152308,-1.790236,95.392998)">
<stop offset="0" style="stop-color:rgb(0%,0%,0%);stop-opacity:0.313726;"/>
<stop offset="0.222222" style="stop-color:rgb(0%,0%,0%);stop-opacity:0.27451;"/>
<stop offset="1" style="stop-color:rgb(0%,0%,0%);stop-opacity:0;"/>
</radialGradient>
<radialGradient id="radial3" gradientUnits="userSpaceOnUse" cx="450.908936" cy="189.579361" fx="450.908936" fy="189.579361" r="21.166656" gradientTransform="matrix(0.000000261256,0.117199,-0.210958,0.000000152308,77.699829,-11.29122)">
<stop offset="0" style="stop-color:rgb(0%,0%,0%);stop-opacity:0.313726;"/>
<stop offset="0.222222" style="stop-color:rgb(0%,0%,0%);stop-opacity:0.27451;"/>
<stop offset="1" style="stop-color:rgb(0%,0%,0%);stop-opacity:0;"/>
</radialGradient>
<linearGradient id="linear1" gradientUnits="userSpaceOnUse" x1="255.323059" y1="233.5" x2="255.323044" y2="254.666656" gradientTransform="matrix(0.0200401,0,0,0.093759,26.88441,20.158179)">
<stop offset="0" style="stop-color:rgb(0%,0%,0%);stop-opacity:0.27451;"/>
<stop offset="1" style="stop-color:rgb(0%,0%,0%);stop-opacity:0;"/>
</linearGradient>
<linearGradient id="linear2" gradientUnits="userSpaceOnUse" x1="192.736588" y1="165.093643" x2="477.111359" y2="-145.133408" gradientTransform="matrix(0.0662976,-0.0662976,0.0607728,0.0607728,5.965013,44.79566)">
<stop offset="0" style="stop-color:rgb(25.882354%,25.882354%,25.882354%);stop-opacity:1;"/>
<stop offset="1" style="stop-color:rgb(38.039216%,38.039216%,38.039216%);stop-opacity:1;"/>
</linearGradient>
<linearGradient id="linear3" gradientUnits="userSpaceOnUse" x1="257.64035" y1="224.72374" x2="354.926453" y2="127.43763" gradientTransform="matrix(0.0662976,-0.0662976,0.0662976,0.0662976,5.727147,44.233183)">
<stop offset="0" style="stop-color:rgb(55.29412%,43.137255%,38.82353%);stop-opacity:1;"/>
<stop offset="1" style="stop-color:rgb(63.137257%,53.333336%,49.803922%);stop-opacity:1;"/>
</linearGradient>
</defs>
<g id="surface1">
<path style=" stroke:none;fill-rule:nonzero;fill:url(#linear0);" d="M 19.847656 5.476562 C 27.519531 5.476562 33.738281 11.695312 33.738281 19.367188 C 33.738281 27.039062 27.519531 33.261719 19.847656 33.261719 C 12.175781 33.261719 5.953125 27.039062 5.953125 19.367188 C 5.953125 11.695312 12.175781 5.476562 19.847656 5.476562 Z M 19.847656 5.476562 "/>
<path style=" stroke:none;fill-rule:nonzero;fill:url(#radial0);" d="M 38.203125 42.050781 L 42.171875 42.050781 L 42.171875 40.066406 L 38.203125 40.066406 Z M 38.203125 42.050781 "/>
<path style=" stroke:none;fill-rule:nonzero;fill:url(#radial1);" d="M 37.707031 42.050781 L 33.738281 42.050781 L 33.738281 44.035156 L 37.707031 44.035156 Z M 37.707031 42.050781 "/>
<path style=" stroke:none;fill-rule:nonzero;fill:url(#radial2);" d="M 37.707031 42.050781 L 33.738281 42.050781 L 33.738281 40.066406 L 37.707031 40.066406 Z M 37.707031 42.050781 "/>
<path style=" stroke:none;fill-rule:nonzero;fill:url(#radial3);" d="M 38.203125 42.050781 L 42.171875 42.050781 L 42.171875 44.035156 L 38.203125 44.035156 Z M 38.203125 42.050781 "/>
<path style=" stroke:none;fill-rule:nonzero;fill:url(#linear1);" d="M 37.707031 42.050781 L 38.203125 42.050781 L 38.203125 44.035156 L 37.707031 44.035156 Z M 37.707031 42.050781 "/>
<path style=" stroke:none;fill-rule:nonzero;fill:url(#linear2);" d="M 19.84375 4.34375 C 11.601562 4.34375 4.960938 10.984375 4.960938 19.226562 C 4.960938 27.472656 11.601562 34.113281 19.84375 34.113281 C 23.292969 34.113281 26.460938 32.953125 28.976562 31 L 31.03125 33.050781 L 33.835938 30.246094 L 31.761719 28.167969 C 33.628906 25.683594 34.730469 22.589844 34.730469 19.226562 C 34.730469 10.984375 28.089844 4.34375 19.84375 4.34375 Z M 19.859375 7.320312 C 26.460938 7.320312 31.777344 12.632812 31.777344 19.226562 C 31.777344 25.824219 26.460938 31.136719 19.859375 31.136719 C 13.253906 31.136719 7.9375 25.824219 7.9375 19.226562 C 7.9375 12.632812 13.253906 7.320312 19.859375 7.320312 Z M 19.859375 7.320312 "/>
<path style=" stroke:none;fill-rule:nonzero;fill:url(#linear3);" d="M 31.03125 33.050781 L 33.835938 30.246094 C 34.613281 29.46875 35.867188 29.46875 36.644531 30.246094 L 42.257812 35.859375 C 43.03125 36.632812 43.03125 37.890625 42.257812 38.664062 L 39.449219 41.472656 C 38.675781 42.246094 37.417969 42.246094 36.644531 41.472656 L 31.03125 35.859375 C 30.253906 35.082031 30.253906 33.824219 31.03125 33.050781 Z M 31.03125 33.050781 "/>
<path style=" stroke:none;fill-rule:nonzero;fill:rgb(100%,100%,100%);fill-opacity:0.392157;" d="M 19.84375 4.34375 C 11.601562 4.34375 4.960938 10.984375 4.960938 19.226562 C 4.960938 19.3125 4.960938 19.394531 4.964844 19.476562 C 5.09375 11.347656 11.683594 4.839844 19.84375 4.839844 C 28.007812 4.839844 34.597656 11.347656 34.726562 19.476562 C 34.730469 19.394531 34.730469 19.3125 34.730469 19.226562 C 34.730469 10.984375 28.089844 4.34375 19.84375 4.34375 Z M 7.941406 19.476562 C 7.9375 19.558594 7.9375 19.640625 7.9375 19.722656 C 7.9375 26.320312 13.253906 31.632812 19.859375 31.632812 C 26.460938 31.632812 31.777344 26.320312 31.777344 19.722656 C 31.777344 19.640625 31.777344 19.558594 31.777344 19.476562 C 31.644531 25.957031 26.378906 31.136719 19.859375 31.136719 C 13.335938 31.136719 8.074219 25.957031 7.941406 19.476562 Z M 31.972656 28.378906 C 31.902344 28.476562 31.832031 28.570312 31.761719 28.664062 L 33.589844 30.492188 L 33.835938 30.246094 Z M 31.972656 28.378906 "/>
<path style=" stroke:none;fill-rule:nonzero;fill:rgb(0%,0%,0%);fill-opacity:0.235294;" d="M 19.859375 6.960938 C 13.253906 6.960938 7.9375 12.273438 7.9375 18.871094 C 7.9375 18.929688 7.9375 18.988281 7.941406 19.050781 C 8.035156 12.535156 13.316406 7.320312 19.859375 7.320312 C 26.402344 7.320312 31.683594 12.535156 31.777344 19.050781 C 31.777344 18.988281 31.777344 18.929688 31.777344 18.871094 C 31.777344 12.273438 26.460938 6.960938 19.859375 6.960938 Z M 34.730469 19.046875 C 34.691406 22.339844 33.59375 25.367188 31.761719 27.808594 L 31.914062 27.960938 C 33.6875 25.511719 34.730469 22.496094 34.730469 19.226562 C 34.730469 19.167969 34.730469 19.109375 34.730469 19.046875 Z M 4.960938 19.050781 C 4.960938 19.109375 4.960938 19.167969 4.960938 19.226562 C 4.960938 27.472656 11.601562 34.113281 19.84375 34.113281 C 23.292969 34.113281 26.460938 32.953125 28.976562 31 L 31.03125 33.050781 L 33.835938 30.246094 L 33.65625 30.066406 L 31.03125 32.691406 L 28.976562 30.640625 C 26.460938 32.59375 23.292969 33.753906 19.84375 33.753906 C 11.660156 33.753906 5.058594 27.210938 4.960938 19.050781 Z M 4.960938 19.050781 "/>
<path style=" stroke:none;fill-rule:nonzero;fill:rgb(12.941177%,12.941177%,12.941177%);fill-opacity:1;" d="M 19.84375 4.203125 C 11.523438 4.203125 4.820312 10.90625 4.820312 19.226562 C 4.820312 27.550781 11.523438 34.253906 19.84375 34.253906 C 23.28125 34.253906 26.4375 33.109375 28.960938 31.183594 L 30.835938 33.054688 C 30.867188 33.019531 30.898438 32.984375 30.929688 32.953125 L 31.03125 32.851562 L 29.078125 30.898438 C 29.027344 30.847656 28.949219 30.84375 28.890625 30.886719 C 26.398438 32.820312 23.261719 33.972656 19.84375 33.972656 C 11.675781 33.972656 5.101562 27.398438 5.101562 19.226562 C 5.101562 11.058594 11.675781 4.484375 19.84375 4.484375 C 28.015625 4.484375 34.589844 11.058594 34.589844 19.226562 C 34.589844 22.558594 33.496094 25.621094 31.648438 28.085938 C 31.609375 28.140625 31.613281 28.21875 31.664062 28.269531 L 33.636719 30.246094 L 33.738281 30.144531 C 33.769531 30.113281 33.804688 30.078125 33.839844 30.050781 L 31.945312 28.152344 C 33.78125 25.660156 34.871094 22.574219 34.871094 19.226562 C 34.871094 10.90625 28.167969 4.203125 19.84375 4.203125 Z M 19.859375 7.179688 C 13.179688 7.179688 7.796875 12.554688 7.796875 19.226562 C 7.796875 25.902344 13.179688 31.277344 19.859375 31.277344 C 26.539062 31.277344 31.917969 25.902344 31.917969 19.226562 C 31.917969 12.554688 26.539062 7.179688 19.859375 7.179688 Z M 19.859375 7.460938 C 26.386719 7.460938 31.636719 12.707031 31.636719 19.226562 C 31.636719 25.75 26.386719 30.996094 19.859375 30.996094 C 13.332031 30.996094 8.078125 25.75 8.078125 19.226562 C 8.078125 12.707031 13.332031 7.460938 19.859375 7.460938 Z M 19.859375 7.460938 "/>
<path style=" stroke:none;fill-rule:nonzero;fill:rgb(100%,100%,100%);fill-opacity:0.392157;" d="M 35.242188 29.660156 C 34.734375 29.660156 34.226562 29.855469 33.835938 30.246094 L 31.03125 33.050781 C 30.585938 33.496094 30.398438 34.09375 30.460938 34.671875 C 30.507812 34.238281 30.699219 33.816406 31.03125 33.484375 L 33.835938 30.679688 C 34.613281 29.902344 35.867188 29.902344 36.644531 30.679688 L 42.257812 36.292969 C 42.589844 36.625 42.78125 37.046875 42.828125 37.476562 C 42.890625 36.902344 42.703125 36.300781 42.257812 35.859375 L 36.644531 30.246094 C 36.253906 29.855469 35.746094 29.660156 35.242188 29.660156 Z M 35.242188 29.660156 "/>
<path style=" stroke:none;fill-rule:nonzero;fill:rgb(0%,0%,0%);fill-opacity:0.235294;" d="M 38.046875 42.097656 C 38.554688 42.097656 39.0625 41.90625 39.449219 41.515625 L 42.257812 38.710938 C 42.703125 38.265625 42.890625 37.667969 42.828125 37.089844 C 42.78125 37.523438 42.589844 37.941406 42.257812 38.277344 L 39.449219 41.082031 C 38.671875 41.859375 37.421875 41.859375 36.644531 41.082031 L 31.03125 35.46875 C 30.699219 35.136719 30.507812 34.714844 30.460938 34.28125 C 30.398438 34.859375 30.585938 35.460938 31.03125 35.902344 L 36.644531 41.515625 C 37.03125 41.90625 37.539062 42.097656 38.046875 42.097656 Z M 38.046875 42.097656 "/>
<path style=" stroke:none;fill-rule:nonzero;fill:rgb(12.941177%,12.941177%,12.941177%);fill-opacity:1;" d="M 30.929688 32.953125 C 30.101562 33.78125 30.101562 35.125 30.929688 35.957031 L 36.542969 41.570312 C 37.375 42.402344 38.71875 42.402344 39.550781 41.570312 L 42.355469 38.761719 C 43.1875 37.933594 43.1875 36.589844 42.355469 35.757812 L 36.742188 30.144531 C 35.914062 29.3125 34.570312 29.3125 33.738281 30.144531 Z M 31.128906 33.152344 L 33.9375 30.34375 C 34.660156 29.621094 35.820312 29.621094 36.542969 30.34375 L 42.15625 35.957031 C 42.882812 36.679688 42.882812 37.839844 42.15625 38.566406 L 39.351562 41.371094 C 38.625 42.09375 37.46875 42.09375 36.742188 41.371094 L 31.128906 35.757812 C 30.40625 35.035156 30.40625 33.875 31.128906 33.152344 Z M 31.128906 33.152344 "/>
</g>
</svg>
